!!!COM: Claude Goudimel
!!!OMD: Psalm 52: Di-moy, malheureux, qui te
**kern	**kern	**kern	**kern
*part4	*part3	*part2	*part1
*staff4	*staff3	*staff2	*staff1
*clefF4	*clefGv2	*clefG2	*clefG2
*k[f#c#]	*k[f#c#]	*k[f#c#]	*k[f#c#]
!!LO:TX:omd:t=
*M4/4	*M4/4	*M4/4	*M4/4
=1	=1	=1	=1
2D	2d	2f#	2a
2F#	2c#	2f#	2a
=2	=2	=2	=2
4E	4e	4g	4b
4A	4e	4a	4cc#
2G	2B	2b	2dd
=3	=3	=3	=3
4G	4B	4b	4dd
4A	4e	2a	4cc#
2E	2e	.	2b
.	.	4g#X	.
=4	=4	=4	=4
2AA	2c#	2a	2a
2D	2A	2d	2f#
=5	=5	=5	=5
4GG	4d	4g	4b
4GG	4d	4g	4b
4D	4d	4f#	4a
4E	4B	4e	4g#X
=6	=6	=6	=6
2D	2d	2f#	2a
2r	2r	2r	2r
=7	=7	=7	=7
2BB	2B	2d	2f#
2E	2B	2e	2g
=8	=8	=8	=8
2D	2F#	2d	2a
4D	4D	4A	4f#
4BB	4F#	4B	4d
=9	=9	=9	=9
4Cn	4E	4e	4g
4D	4A	2d	4f#
2AA	2A	.	2e
.	.	4c#	.
=10	=10	=10	=10
2D	2A	2d	2d
2D	2d	2f#	2a
=11	=11	=11	=11
4E	4B	4e	4g
4BB	4B	4d	4f#
4BB	4F#	4B	4d
4AA	4A	4c#	4e
=12	=12	=12	=12
2D	2A	2d	2f#
2r	2r	2r	2r
=13	=13	=13	=13
2BB	2D	2B	2f#
4BB	4F#	4B	4d
4AA	4A	4c#	4e
=14	=14	=14	=14
4D	4A	4d	4f#
4D	4d	4f#	4a
2E	2B	2e	2g
=15	=15	=15	=15
2BB	2B	2e-X	2f#
4E	4B	4en	4e
4D	4F#	4f#	4a
=16	=16	=16	=16
4GG	4B	4d	4g
4AA	4A	2f#	4f#
2BB	2F#	.	2d
.	.	[4d	.
=17	=17	=17	=17
2AA	2A	4d]	2e
.	.	4c#	.
[2D	[2A	[2d	[2d
=18	=18	=18	=18
2D]	2A]	2d]	2d]
2ryy	2ryy	2ryy	2ryy
==	==	==	==
*-	*-	*-	*-
!!!software: music21 v.9.7.1
!!!software: music21 v.8.3.0
!!!RDF**kern: > = above
!!!RDF**kern: < = below
